X: 6666
T: Ceisel's Sword
R: reel
M: 4/4
K: Dmixolydian
|:AcBG A2FD|AcBG c2ge|decA BGGA|GEFF ECDA:|
|:d2fg abag|ecef g2ed|cdef g2ge|cABB GEFA|
d2fg abag|ecef g2ag|fdee cABB|1 GEFF ECD2:|2 GEFG A2FG||

